SVG_Azure_Grouped/Management/Application Insights User Flow.svg

<?xml version="1.0" encoding="UTF-8" standalone="no"?>
<!-- Generated by Microsoft Visio, SVG Export Application Insights User Flow.svg Page-1 -->

<svg
   xmlns:dc="http://purl.org/dc/elements/1.1/"
   xmlns:cc="http://creativecommons.org/ns#"
   xmlns:rdf="http://www.w3.org/1999/02/22-rdf-syntax-ns#"
   xmlns:svg="http://www.w3.org/2000/svg"
   xmlns="http://www.w3.org/2000/svg"
   xmlns:sodipodi="http://sodipodi.sourceforge.net/DTD/sodipodi-0.dtd"
   xmlns:inkscape="http://www.inkscape.org/namespaces/inkscape"
   width="0.78735155in"
   height="0.70860898in"
   viewBox="0 0 56.689379 51.019953"
   xml:space="preserve"
   class="st4"
   version="1.1"
   id="svg42"
   sodipodi:docname="Application Insights User Flow.svg"
   style="font-size:12px;overflow:visible;color-interpolation-filters:sRGB;fill:none;fill-rule:evenodd;stroke-linecap:square;stroke-miterlimit:3"
   inkscape:version="0.92.5 (2060ec1f9f, 2020-04-08)"><metadata
   id="metadata48"><rdf:RDF><cc:Work
       rdf:about=""><dc:format>image/svg+xml</dc:format><dc:type
         rdf:resource="http://purl.org/dc/dcmitype/StillImage" /></cc:Work></rdf:RDF></metadata><defs
   id="defs46" /><sodipodi:namedview
   pagecolor="#ffffff"
   bordercolor="#666666"
   borderopacity="1"
   objecttolerance="10"
   gridtolerance="10"
   guidetolerance="10"
   inkscape:pageopacity="0"
   inkscape:pageshadow="2"
   inkscape:window-width="640"
   inkscape:window-height="480"
   id="namedview44"
   showgrid="false"
   inkscape:zoom="1.8195051"
   inkscape:cx="37.795231"
   inkscape:cy="19.499488"
   inkscape:window-x="0"
   inkscape:window-y="0"
   inkscape:window-maximized="0"
   inkscape:current-layer="svg42" />
	<style
   type="text/css"
   id="style2">
	<![CDATA[
		.st1 {fill:#804998;stroke:none;stroke-linecap:butt;stroke-width:12.24}
		.st2 {fill:#ffffff;fill-opacity:0.75;stroke:none;stroke-linecap:butt;stroke-width:12.24}
		.st3 {fill:#3999c6;stroke:none;stroke-linecap:butt;stroke-width:12.24}
		.st4 {fill:none;fill-rule:evenodd;font-size:12px;overflow:visible;stroke-linecap:square;stroke-miterlimit:3}
	]]>
	</style>

	<g
   id="g40"
   transform="translate(-12.239998,-12.244388)">
		<title
   id="title4">Page-1</title>
		<g
   id="group13197-1"
   transform="translate(12.24,-34.0157)">
			<title
   id="title6">Application Insights User Flow.13197</title>
			<g
   id="group13198-2">
				<title
   id="title8">Sheet.13198</title>
				<g
   id="group13199-3"
   transform="translate(20.4094)">
					<title
   id="title10">Sheet.13199</title>
					<g
   id="shape13200-4">
						<title
   id="title12">Sheet.13200</title>
						<path
   d="m 26.08,62.49 h 9.07 a 1.13386,1.15963 -180 0 0 1.13,-1.16 v -9.28 a 1.13386,1.15963 -180 0 0 -1.13,-1.16 h -9.07 a 1.13386,1.15963 -180 0 0 -1.14,1.16 v 3.48 H 19.28 V 52.05 A 1.13386,1.15963 -180 0 0 18.14,50.89 H 9.07 a 1.13386,1.15963 -180 0 0 -1.13,1.16 v 3.48 H 0 v 2.32 h 7.94 v 3.48 a 1.13386,1.15963 -180 0 0 1.13,1.16 h 8.6 l 7.27,7.44 v 8.8 a 1.13386,1.15963 -180 0 0 1.14,1.15 h 3.4 v 5.8 h -3.4 a 1.13386,1.15963 -180 0 0 -1.14,1.16 v 9.28 a 1.13386,1.15963 -180 0 0 1.14,1.16 h 9.07 a 1.13386,1.15963 -180 0 0 1.13,-1.16 v -9.28 a 1.13386,1.15963 -180 0 0 -1.13,-1.16 h -3.4 v -5.8 h 3.4 a 1.13386,1.15963 -180 0 0 1.13,-1.15 v -9.28 a 1.13386,1.15963 -180 0 0 -1.13,-1.16 h -8.6 l -7.27,-7.44 v -3 h 5.66 v 3.48 a 1.13386,1.15963 -180 0 0 1.14,1.16 z"
   class="st1"
   id="path14"
   inkscape:connector-curvature="0"
   style="fill:#804998;stroke:none;stroke-width:12.23999977;stroke-linecap:butt" />
					</g>
					<g
   id="shape13201-6"
   transform="translate(0.33222)">
						<title
   id="title17">Sheet.13201</title>
						<path
   d="M 17.81,68.29 H 9.21 L 1.6,60.51 0,62.15 7.6,69.93 v 8.8 a 1.13386,1.15963 -180 0 0 1.14,1.15 h 3.4 v 5.8 H 8.74 A 1.13386,1.15963 -180 0 0 7.6,86.84 v 9.28 a 1.13386,1.15963 -180 0 0 1.14,1.16 h 9.07 a 1.13386,1.15963 -180 0 0 1.13,-1.16 v -9.28 a 1.13386,1.15963 -180 0 0 -1.13,-1.16 h -3.4 v -5.8 h 3.4 a 1.13386,1.15963 -180 0 0 1.13,-1.15 v -9.28 a 1.13386,1.15963 -180 0 0 -1.13,-1.16 z"
   class="st1"
   id="path19"
   inkscape:connector-curvature="0"
   style="fill:#804998;stroke:none;stroke-width:12.23999977;stroke-linecap:butt" />
					</g>
				</g>
				<g
   id="shape13202-8"
   transform="translate(30.6142,-2.31926)">
					<title
   id="title23">Sheet.13202</title>
					<path
   d="m 6.8,55.53 v 6.96 H 0 v -6.96 z m 17.01,0 v 6.96 h -6.8 v -6.96 z m 0,41.75 h -6.8 v -6.96 h 6.8 z m -17.01,0 H 0 v -6.96 h 6.8 z m 0,-17.4 H 0 v -6.95 h 6.8 z m 17.01,0 h -6.8 v -6.95 h 6.8 z"
   class="st2"
   id="path25"
   inkscape:connector-curvature="0"
   style="fill:#ffffff;fill-opacity:0.75;stroke:none;stroke-width:12.23999977;stroke-linecap:butt" />
				</g>
				<g
   id="shape13203-10"
   transform="translate(0,-31.3099)">
					<title
   id="title28">Sheet.13203</title>
					<path
   d="M 1.47,77.57 H 21.2 a 1.47402,1.50752 0 0 1 1.48,1.5 v 16.7 A 1.47402,1.50752 0 0 1 21.2,97.28 H 1.47 A 1.47402,1.50752 0 0 1 0,95.77 v -16.7 a 1.47402,1.50752 0 0 1 1.47,-1.5 z"
   class="st3"
   id="path30"
   inkscape:connector-curvature="0"
   style="fill:#3999c6;stroke:none;stroke-width:12.23999977;stroke-linecap:butt" />
				</g>
				<g
   id="shape13204-12"
   transform="translate(2.26772,-33.6292)">
					<title
   id="title33">Sheet.13204</title>
					<rect
   x="0"
   y="84.523499"
   width="18.141701"
   height="12.7559"
   class="st2"
   id="rect35"
   style="fill:#ffffff;fill-opacity:0.75;stroke:none;stroke-width:12.23999977;stroke-linecap:butt" />
				</g>
			</g>
		</g>
	</g>
</svg>

<?xml version="1.0" encoding="UTF-8" standalone="no"?>
<!DOCTYPE svg PUBLIC "-//W3C//DTD SVG 1.1//EN" "http://www.w3.org/Graphics/SVG/1.1/DTD/svg11.dtd">
<!-- Generated by Microsoft Visio, SVG Export Application Insights User Flow.svg Page-1 -->
<svg xmlns="http://www.w3.org/2000/svg" xmlns:xlink="http://www.w3.org/1999/xlink" xmlns:ev="http://www.w3.org/2001/xml-events"
		width="1.1274in" height="1.3511in" viewBox="0 0 81.1729 97.2794" xml:space="preserve" color-interpolation-filters="sRGB"
		class="st4">
	<style type="text/css">
	<![CDATA[
		.st1 {fill:#804998;stroke:none;stroke-linecap:butt;stroke-width:12.24}
		.st2 {fill:#ffffff;fill-opacity:0.75;stroke:none;stroke-linecap:butt;stroke-width:12.24}
		.st3 {fill:#3999c6;stroke:none;stroke-linecap:butt;stroke-width:12.24}
		.st4 {fill:none;fill-rule:evenodd;font-size:12px;overflow:visible;stroke-linecap:square;stroke-miterlimit:3}
	]]>
	</style>

	<g>
		<title>Page-1</title>
		<g id="group12904-1" transform="translate(12.24,-34.0157)">
			<title>Application Insights User Flow.12904</title>
			<g id="group12905-2">
				<title>Sheet.12905</title>
				<g id="group12906-3" transform="translate(20.4094,2.55795E-13)">
					<title>Sheet.12906</title>
					<g id="shape12907-4">
						<title>Sheet.12907</title>
						<path d="M26.08 62.49 L35.15 62.49 A1.13386 1.15963 -180 0 0 36.28 61.33 L36.28 52.05 A1.13386 1.15963 -180
									 0 0 35.15 50.89 L26.08 50.89 A1.13386 1.15963 -180 0 0 24.94 52.05 L24.94 55.53 L19.28 55.53
									 L19.28 52.05 A1.13386 1.15963 -180 0 0 18.14 50.89 L9.07 50.89 A1.13386 1.15963 -180 0 0 7.94
									 52.05 L7.94 55.53 L0 55.53 L0 57.85 L7.94 57.85 L7.94 61.33 A1.13386 1.15963 -180 0 0 9.07 62.49
									 L17.67 62.49 L24.94 69.93 L24.94 78.73 A1.13386 1.15963 -180 0 0 26.08 79.88 L29.48 79.88 L29.48
									 85.68 L26.08 85.68 A1.13386 1.15963 -180 0 0 24.94 86.84 L24.94 96.12 A1.13386 1.15963 -180
									 0 0 26.08 97.28 L35.15 97.28 A1.13386 1.15963 -180 0 0 36.28 96.12 L36.28 86.84 A1.13386 1.15963
									 -180 0 0 35.15 85.68 L31.75 85.68 L31.75 79.88 L35.15 79.88 A1.13386 1.15963 -180 0 0 36.28
									 78.73 L36.28 69.45 A1.13386 1.15963 -180 0 0 35.15 68.29 L26.55 68.29 L19.28 60.85 L19.28 57.85
									 L24.94 57.85 L24.94 61.33 A1.13386 1.15963 -180 0 0 26.08 62.49 Z" class="st1"/>
					</g>
					<g id="shape12908-6" transform="translate(0.33222,0)">
						<title>Sheet.12908</title>
						<path d="M17.81 68.29 L9.21 68.29 L1.6 60.51 L0 62.15 L7.6 69.93 L7.6 78.73 A1.13386 1.15963 -180 0 0 8.74
									 79.88 L12.14 79.88 L12.14 85.68 L8.74 85.68 A1.13386 1.15963 -180 0 0 7.6 86.84 L7.6 96.12 A1.13386
									 1.15963 -180 0 0 8.74 97.28 L17.81 97.28 A1.13386 1.15963 -180 0 0 18.94 96.12 L18.94 86.84
									 A1.13386 1.15963 -180 0 0 17.81 85.68 L14.41 85.68 L14.41 79.88 L17.81 79.88 A1.13386 1.15963
									 -180 0 0 18.94 78.73 L18.94 69.45 A1.13386 1.15963 -180 0 0 17.81 68.29 Z" class="st1"/>
					</g>
				</g>
				<g id="shape12909-8" transform="translate(30.6142,-2.31926)">
					<title>Sheet.12909</title>
					<path d="M6.8 55.53 L6.8 62.49 L0 62.49 L0 55.53 L6.8 55.53 ZM23.81 55.53 L23.81 62.49 L17.01 62.49 L17.01 55.53
								 L23.81 55.53 ZM23.81 97.28 L17.01 97.28 L17.01 90.32 L23.81 90.32 L23.81 97.28 ZM6.8 97.28 L0 97.28
								 L0 90.32 L6.8 90.32 L6.8 97.28 ZM6.8 79.88 L0 79.88 L0 72.93 L6.8 72.93 L6.8 79.88 ZM23.81 79.88
								 L17.01 79.88 L17.01 72.93 L23.81 72.93 L23.81 79.88 Z" class="st2"/>
				</g>
				<g id="shape12910-10" transform="translate(0,-31.3099)">
					<title>Sheet.12910</title>
					<path d="M1.47 77.57 L21.2 77.57 A1.47402 1.50752 0 0 1 22.68 79.07 L22.68 95.77 A1.47402 1.50752 0 0 1 21.2
								 97.28 L1.47 97.28 A1.47402 1.50752 0 0 1 -0 95.77 L0 79.07 A1.47402 1.50752 0 0 1 1.47 77.57 Z"
							class="st3"/>
				</g>
				<g id="shape12911-12" transform="translate(2.26772,-33.6292)">
					<title>Sheet.12911</title>
					<rect x="0" y="84.5235" width="18.1417" height="12.7559" class="st2"/>
				</g>
			</g>
		</g>
	</g>
</svg>
